!!!OTL: WO MOECHT ICH SEIN
!!!ARE: Europa, Mitteleuropa, Deutschland
!!!SCT: F0812
!!!YEM: Copyright 1995, estate of Helmut Schaffrath.
**kern
*ICvox
*Ivox
*M4/4
*k[]
*C:
=1
{2G
4G
4c
=2
2.B}
{8C
8E
=3
4G
8G
8G
4G
8E
8G
=4
4c
4d
4e}
{8C
8E
=5
4G
4G
4G
8E
8G
=6
4c
4d
4e}
{4c
=7
4d
4d
4d
8d
8d
=8
4d
8e
8e
2f}
=9
{2f
4B
4d
=10
2c
2r}
==
!!!AGN: Geselligkeits -, Trink -, Moral - Lied
!!!ONB: ESAC (Essen Associative Code) Database: FINK
!!!AMT: simple quadruple
!!!AIN: vox
!!!EED: Helmut Schaffrath
!!!EEV: 1.0
*-
